!!!OTL: Xinxie shizi
!!!ARE: Asia, China,ÿLiaoning Chifeng
!! III, 238
!!!SCT: C1744
!!!YEM: Copyright 1995, estate of Helmut Schaffrath.
**kern
*ICvox
*Ivox
*M2/4
*k[b-e-]
*B-:
{8.ccc
16ccc
8ccc
8ccc
=1
8fff
8ddd
4ccc
=2
8fff
8ddd
4fff
=3
4bb-
8bb-
8gg}
=4
{8ccc
8ccc
4ccc
=5
8fff
8ddd
4ccc
=6
8fff
8ddd
4fff
=7
4bb-
8bb-
8gg}
=8
{8ddd
8ggg
4fff
=9
8ddd
8fff
8ddd
8ccc
=10
8fff
8ggg
8ddd
8ccc
=11
4.bb-
8gg}
=12
{8ccc
8ddd
4fff}
=13
{8ddd
8ggg
4fff
=14
8fff
8fff
8ggg
8ddd
=15
4ccc
4ccc}
=16
{4ff
4gg
=17
8.ddd
16ccc
8bb-
8ddd
=18
2ccc}
=19
{8fff
8ddd
4fff
=20
8.ddd
16ccc
8bb-
8bb-
=21
8bb-
8gg
4ccc
=22
8bb-
8gg
4ff
=23
8.aa
16gg
8aa
8gg
=24
2ff}
=25
{4.fff
8ddd
=26
8ccc
8bb-
4ccc}
=27
{4.fff
8ddd
=28
8ccc
8bb-
4ccc}
=29
{8.gg
16bb-
8gg
8bb-}
=30
{8.ccc
16bb-
8ccc
8bb-}
=31
{8.gg
16bb-
8gg
8bb-}
=32
{8.ccc
16bb-
8ccc
8bb-}
=33
{8.gg
16bb-
8gg
8bb-}
=34
{8.ccc
16bb-
8ccc
8bb-}
=35
{8aa
8gg
8aa
8gg
=36
4ff
4r}
=37
{8.gg
16bb-
8gg
8bb-
=38
4ccc
4r}
=39
{8fff
8ddd
4fff
=40
8.aa
16gg
8ff
8gg
=41
4ccc
8aa
8gg
=42
8ff
8dd
8bb-
8gg
=43
[2ff
=44
2ff]}
==
!!!AGN: Xiaodiao, Xieshizi diao
!!!AMT: simple duple
!!!AIN: vox
!!!EED: Helmut Schaffrath
!!!EEV: 1.0
*-
!!!ONB: Tied note syntax fixed by Craig Sapp, 2004/05/03/
